%
(a program for milling five small circles in a diamond shape)
G90
G00
x 0 y 0 z0
O0000
N10 (MACH3 MILL - )
N20 (AUTHOR - {BOB WARFIELD})
N30 (GROUP - SPOT DRILL AND ENGRAVE PANEL)
N40 (SYSTEM- ONECNC-XR2 MILL ADVANTAGE - VERSION 8.12)
N50 (NOTES - NONE)

N100 G90 G0 X0 Y0 Z0 (coordinate home)
N110 G1 X0 G4 P0.1
N120 G81 X1 Y0 Z0 R1 (canned drill cycle)
N130 X2 X3 (illegal 2 times X)
N131 G0 X4 G1 (illegal 2 times same group G code)
N140 X3
N150 X4
N160 Y1 Z0.5
N170 X3
N180 X2
N190 X1
N200 G80 (turn off canned cycle)
N210 G0 X0 (rapid move home)
N220 Y0
N230 Z0
N240 M2 (program end)

G10 L2 P1 X0 Y0 Z0 (ensure that G54 is machine zero)
G10 L2 P2 X0.5 (offsets G55 X value by 0.5 inch)
G10 L2 P3 X-0.5 (offsets G56 X value by -0.5 inch)
G10 L2 P4 Y0.5 (offsets G57 Y value by 0.5 inch)
G10 L2 P5 Y-0.5 (offsets G58 Y value by -0.5 inch)

G54 G0 X-0.1 Y0 Z0 (center circle)
G1 F1 Z-0.25
G3 X-0.1 Y0 I0.1 J0
G0 Z0

G55 G0 X-0.1 Y0 Z0 (first offset circle)
G1 F1 Z-0.25
G3 X-0.1 Y0 I0.1 J0
G0 Z0

G56 G0 X-0.1 Y0 Z0 (second offset circle)
G1 F1 Z-0.25
G3 X-0.1 Y0 I0.1 J0
G0 Z0

G57 G0 X-0.1 Y0 Z0 (third offset circle)
G1 F1 Z-0.25
G3 X-0.1 Y0 I0.1 J0
G0 Z0

G58 G0 X-0.1 Y0 Z0 (fourth offset circle)
G1 F1 Z-0.25
G3 X-0.1 Y0 I0.1 J0
G54 G0 X0 Y0 Z0

M2

; dit is reprap, met * en checksum dingen

N3 T0*57 ; This is a comment
N4 G92 E0*67
; So is this
N5 G28*22

;Generated with Cura_SteamEngine 13.12
M109 T0 S240.000000
T0
;Sliced at: Fri 27-11-2015 18:48:49
;Basic settings: Layer height: 0.2 Walls: 1 Fill: 25
;Print time: #P_TIME#
;Filament used: #F_AMNT#m #F_WGHT#g
;Filament cost: #F_COST#
G21        ;metric values
G90        ;absolute positioning
M107       ;start with the fan off
G28 X0 Y0  ;move X/Y to min endstops
G28 Z0     ;move Z to min endstops
G1 Z15.0 F9000 ;move the platform down 15mm
G92 E0                  ;zero the extruded length
G1 F200 E3              ;extrude 3mm of feed stock
G92 E0                  ;zero the extruded length again
G1 F9000

;Layer count: 3
;LAYER:0
M107
G0 F1800 X33.07 Y30.91 Z0.30
;TYPE:WALL-INNER
G1 F2400 E0.00000
G1 F600 X33.19 Y30.91 E0.00280
G1 X33.19 Y35.22 E0.10416
G1 X34.12 Y35.40 E0.12638
G1 X33.83 Y36.06 E0.14320
G1 X33.07 Y36.06 E0.16095
G1 X33.07 Y30.91 E0.28209
G0 F1800 X33.28 Y35.14
G0 X34.33 Y35.35
G0 X35.66 Y32.45
G1 F600 X35.84 Y32.45 E0.28635
G1 X35.95 Y32.71 E0.29291
G1 X35.55 Y32.71 E0.30227
G1 X35.66 Y32.45 E0.30882
G1 F2400 E-4.19118
G0 F1800 X38.31 Y30.91
G1 F2400 E0.30882
G1 F600 X38.54 Y30.91 E0.31411
G1 X38.54 Y36.06 E0.43525
G1 X37.77 Y36.06 E0.45336
G1 X37.47 Y35.39 E0.47059
G1 X38.31 Y35.22 E0.49079
G1 X38.31 Y30.91 E0.59216
G0 F1800 X37.81 Y30.41
;TYPE:WALL-OUTER
G1 F600 X39.04 Y30.41 E0.62096
G1 X39.04 Y36.56 E0.76562
G1 X37.44 Y36.56 E0.80312
G1 X35.96 Y33.21 E0.88920
G1 X35.63 Y33.21 E0.89686
G1 X34.15 Y36.56 E0.98296
G1 X32.57 Y36.56 E1.02011
G1 X32.57 Y30.41 E1.16476
G1 X33.69 Y30.41 E1.19107
G1 X33.69 Y34.81 E1.29458
G1 X34.09 Y34.89 E1.30418
G1 X35.33 Y31.95 E1.37909
G1 X36.17 Y31.95 E1.39899
G1 X37.41 Y34.89 E1.47388
G1 X37.81 Y34.81 E1.48350
G1 X37.81 Y30.41 E1.58701
G1 F2400 E-2.91299
G0 F1800 X41.23 Y31.81
;TYPE:WALL-INNER
G1 F2400 E1.58701
G1 F600 X41.40 Y31.52 E1.59497
G1 X41.42 Y31.49 E1.59590
G1 X41.27 Y31.87 E1.60560
G1 X41.16 Y32.60 E1.62302
G1 X41.37 Y32.84 E1.63052
G1 X41.16 Y33.09 E1.63810
G1 X41.19 Y33.35 E1.64444
G1 X41.12 Y33.09 E1.65083
G1 X41.09 Y32.63 E1.66177
G1 X41.12 Y32.18 E1.67237
G1 X41.23 Y31.81 E1.68140
G0 F1800 X44.80 Y33.12
G1 F600 X44.88 Y33.12 E1.68335
G1 X44.87 Y33.36 E1.68901
G1 X44.78 Y33.71 E1.69736
G1 X44.70 Y33.88 E1.70196
G1 X44.75 Y33.65 E1.70767
G1 X44.80 Y33.12 E1.72006
G0 F1800 X44.29 Y33.24
;TYPE:WALL-OUTER
G1 F600 X44.14 Y33.07 E1.72525
G1 X41.83 Y33.07 E1.77948
G1 X41.68 Y33.24 E1.78482
G1 X41.73 Y33.60 E1.79321
G1 X41.83 Y33.88 E1.80025
G1 X41.96 Y34.10 E1.80633
G1 X42.14 Y34.28 E1.81220
G1 X42.36 Y34.41 E1.81837
G1 X42.58 Y34.50 E1.82387
G1 X42.80 Y34.54 E1.82904
G1 X43.05 Y34.56 E1.83510
G1 X43.35 Y34.53 E1.84217
G1 X43.60 Y34.47 E1.84809
G1 X43.81 Y34.36 E1.85366
G1 X43.95 Y34.25 E1.85791
G1 X44.10 Y34.04 E1.86402
G1 X44.20 Y33.82 E1.86958
G1 X44.26 Y33.58 E1.87533
G1 X44.29 Y33.24 E1.88354
G0 F1800 X45.36 Y33.44
G1 F600 X45.26 Y33.88 E1.89414
G1 X45.09 Y34.24 E1.90346
G1 X44.85 Y34.53 E1.91234
G1 X44.55 Y34.77 E1.92133
G1 X44.18 Y34.94 E1.93086
G1 X43.72 Y35.04 E1.94204
G1 X43.19 Y35.08 E1.95448
G1 X42.53 Y35.02 E1.97004
G1 X42.08 Y34.91 E1.98093
G1 X41.64 Y34.70 E1.99235
G1 X41.27 Y34.42 E2.00347
G1 X40.97 Y34.07 E2.01425
G1 X40.76 Y33.65 E2.02520
G1 X40.63 Y33.18 E2.03682
G1 X40.58 Y32.63 E2.04970
G1 X40.63 Y32.08 E2.06261
G1 X40.76 Y31.62 E2.07403
G1 X40.99 Y31.22 E2.08477
G1 X41.30 Y30.89 E2.09552
G1 X41.70 Y30.62 E2.10686
G1 X42.19 Y30.43 E2.11910
G1 X42.77 Y30.31 E2.13310
G1 X43.46 Y30.26 E2.14935
G1 X43.72 Y30.27 E2.15546
G1 X44.26 Y30.32 E2.16820
G1 X44.73 Y30.42 E2.17966
G1 X45.29 Y30.61 E2.19346
G1 X45.29 Y31.39 E2.21190
G1 X45.11 Y31.29 E2.21671
G1 X44.40 Y31.00 E2.23481
G1 X44.14 Y30.94 E2.24106
G1 X43.89 Y30.90 E2.24704
G1 X43.62 Y30.89 E2.25331
G1 X43.16 Y30.92 E2.26415
G1 X42.84 Y30.98 E2.27202
G1 X42.48 Y31.11 E2.28085
G1 X42.26 Y31.25 E2.28702
G1 X42.03 Y31.46 E2.29431
G1 X42.02 Y31.48 E2.29499
G1 X41.85 Y31.75 E2.30224
G1 X41.75 Y32.04 E2.30961
G1 X41.69 Y32.45 E2.31928
G1 X41.84 Y32.62 E2.32465
G1 X45.40 Y32.62 E2.40838
G1 X45.40 Y32.93 E2.41572
G1 X45.36 Y33.44 E2.42762
G0 F1800 X46.66 Y34.61
G0 X47.24 Y34.64
;TYPE:WALL-INNER
G1 F600 X47.47 Y34.41 E2.43527
G1 X47.50 Y31.37 E2.50673
G1 X47.55 Y31.17 E2.51159
G1 X72.86 Y153.45 E271.47283
G1 X72.88 Y153.79 E271.47814
G1 X72.84 Y154.31 E271.48630
G1 X72.71 Y154.76 E271.49355
G1 X72.50 Y155.13 E271.50029
G1 X72.20 Y155.45 E271.50704
G1 X71.83 Y155.70 E271.51413
G1 X71.37 Y155.89 E271.52193
G1 X70.82 Y156.00 E271.53064
G1 X70.17 Y156.04 E271.54085
G1 X66.90 Y156.04 E271.59217
G1 X66.90 Y148.65 E271.70792
G1 X68.05 Y148.65 E271.72598
G1 X68.05 Y151.29 E271.76725
G1 X68.20 Y151.43 E271.77049
G0 F9000 X68.60 Y151.69
;TYPE:FILL
G1 F1800 X69.09 Y151.83 E271.77659
G1 X69.81 Y151.83 E271.78265
G1 X70.53 Y151.85 E271.78877
G1 X71.36 Y152.32 E271.80374
G0 F9000 X72.04 Y152.99
G0 X71.99 Y154.65
G0 X70.90 Y155.54
G0 X70.92 Y155.46
G0 X70.87 Y155.37
G1 F1800 X70.86 Y155.72 E271.81035
G1 X70.07 Y155.63 E271.81681
G1 X69.38 Y155.64 E271.82312
G1 X68.67 Y155.65 E271.82942
G1 X68.18 Y155.50 E271.83747
G1 F2400 E267.33747
G0 F9000 X89.35 Y155.80
;TYPE:WALL-OUTER
G1 F2400 E271.83747
G1 F1800 X90.43 Y155.80 E271.85432
G1 X90.43 Y156.46 E271.86467
G1 X89.35 Y156.46 E271.88152
G1 X89.35 Y155.80 E271.89186
G0 F9000 X89.54 Y156.01
;TYPE:FILL
G1 F1800 X89.82 Y156.28 E271.89803
G0 F9000 X98.70 Y156.46
;TYPE:WALL-OUTER
G1 F1800 X98.70 Y155.80 E271.90837
G1 X99.77 Y155.80 E271.92521
G1 X99.77 Y156.46 E271.93555
G1 X98.70 Y156.46 E271.95239
G0 F9000 X122.16 Y156.46
G1 F1800 X122.16 Y155.80 E271.96273
G1 X123.24 Y155.80 E271.97957
G1 X123.24 Y156.46 E271.98992
G1 X122.16 Y156.46 E272.00675
G0 F9000 X122.16 Y156.46 Z5.63
;End GCode
M104 S0                     ;extruder heater off
M140 S0                     ;heated bed heater off (if you have it)
G91                                    ;relative positioning
G1 E-1 F300                            ;retract the filament a bit before lifting the nozzle, to release some of the pressure
G1 Z+0.5 E-5 X-20 Y-20 F9000 ;move Z up a bit and retract filament even more
G28 X0 Y0                              ;move X/Y to min endstops, so the head is out of the way
M84                         ;steppers off
G90                         ;absolute positioning
;CURA_PROFILE_STRING:eNrtV0tv4zYQvgpGf8Qct2iiUn5sshvoskWSS7cosAGa5CLQ0thiQ4kCSdmxDf/3DqlH5MRpu9jtpYgPtvRx3vPNSJZ8gzrJUSxzG7NwHKy5lInNRfpQojFxFLJAo9U8tUKVCZZ8LjG+0TUGRkmRJdIbGCgEC0EWMiyNsJt4PAtKtd1KTIzYInmYBZUWpU1MhZjFM9beWiwq1NzWGuPx9Ag6jo+Ak2PgtAfnmB0YZoGpq0ppG/+mSgwqye1C6SLhWY6G0mvgVibJai4TfLS69meflM2DtagwsWqNOr7i0uAASFZK1gXG0SxQakv55gJl1opRTXiBFFIm6NeS+jg8n72EXZYvwMkxcDoEF1Kt44ixw2Y1JZ4+Q3mh6tLGU+rEAPXJtkfR+8OzQpQJ3axQEh0OTlJVzEW5bPhwqCGKg+q5xs+VtaoYcIWFk0DN/8SU6CDKh9hFqlaoJa98QJ6Qjec2mYgI05ppiNfCLBCl511z7wylSkkfestQQb2hivOOxF1rzIOgZktRIqXj0mcttORVPAm7uy4lieXS5i4QOnLWFjW57Qeo8dBFxZ7ukoI/eqSPa0EoERNd9B7MkdM8iYXtIvMDZlU1nLcm+wbxGbcFc7zrmOtxb3rcUz553BB3jOVl6sbwrMe3Q9gZqYTm0g1rE8Vci2JYHjKp+YIKwvVSlFRSf+cFTMVTRwdXNY/OucFn/X7CncpaZFTMHqehRb3g6VGlp8NDzYV4THKltaCmJnXpOe522IYmk/fz97rM/KgMBagqLJO5sOaYAFHbrbgVZW2FTXOXdyNWyZoKQ9UiRi7jd7KKRmFH8xRdEsljfBo9gzYE/UB90DZcpirD+OKLFClmwO1H2GV8s3ffFunHUXk/uvjEjUjBoLXk23yEXx3PoWEiqcjBZt/DH5QuyewO1/serogqBA93Npn+3a1PcH7orF2wjdOrduUAFShrFJsV1OyOfTGA1o3v5UArVcYOtdz9fnQ9jqD9XNBy05TWissazej6A+tP+JwmoLYIlaIwqYWU9uhzxM46AV89WAubg80RaPRALRZk/RxuGdwxZ52mBW5/vgOrgGYQsMwMDZjxQvesDcEJ3b8UieA+moUMrnbDnbRvFZzL7okCmVqXEM2KgjIYw2WfxNPnYotaeSW/JDPqdLNanJ+rMWNwOXmm0QrCpCgoMXD7Ayi09OHrnQBfclF6V4fJBJRuR8DLMoPrX+jSVXkKX444GITlqEf81L7mn6Mpe1XBy2VAT+eBCrwTC9ioGnKKBoT9kZKK4F98LjRS1WkQD3hBmV2eUnYTxv5B2T+0GsJ0LOVAU0/xUSsR3EImi16ieZU5cdQgr0hbDIwq0HXDt1/TTNGLhqfKT/QwoBhmcHs6Jva5r+PEuYe6al1yqngXUR8NrrCEQjmzT0z+26ReY/kJResDdU8aEAZUbbvY13wz+nw+fd2osVjRm5RpZurD6zEcHdTAD+f4bbf9n3bbTfQt6y1ix9dbxL7rfvO+TnfH33X3oxv2HXP4z5I47AoxIzoDT2TiSRiGbmuPX1nbN+wrN7fTid62/du2/5Zt3/65GL7Q9uDTK0bzv+dAyCMDCY20eFIMU7MiC2v3qn3ZUrB/mHiUOmjXSMVz+aW11r6aHVtdrX1PCenRE1jnpFC1g9Ss16KWVlSyn0ZtwnZ0G5pN3sPVjLFubYxudp3g3gnc7ui/SfK4hzt/QY+2e3+x3b+YYmfumbW/AESGpvA=

